public/flags/2.svg

<svg width="40" height="40" viewBox="0 0 40 40" fill="none" xmlns="http://www.w3.org/2000/svg">
<circle cx="20" cy="20" r="20" fill="white"/>
<path d="M23.4981 2.63037H16.4692C9.61593 4.04818 4.16849 9.48311 2.7627 16.454V23.543C4.16849 30.5139 9.61593 35.9489 16.4692 37.3667H23.4981C30.4099 35.9489 35.7988 30.4549 37.2046 23.543V16.454C35.7988 9.48311 30.3514 4.04818 23.4981 2.63037Z" fill="#F8F8F8"/>
<path d="M37.077 24.1347C37.3974 22.7801 37.5588 21.3921 37.5579 19.9995C37.5579 18.5758 37.3915 17.191 37.077 15.8642H24.0857V2.76187C22.7425 2.43871 21.3663 2.27592 19.9855 2.27686C18.5738 2.27686 17.2008 2.44463 15.8853 2.76187V15.8642H2.89399C2.57357 17.2189 2.41216 18.6068 2.41309 19.9995C2.41309 21.4232 2.57944 22.8079 2.89399 24.1347H15.8853V37.2371C17.2284 37.5602 18.6046 37.723 19.9855 37.7221C21.3971 37.7221 22.7701 37.5543 24.0857 37.2371V24.1347H37.077Z" fill="#CE1124"/>
</svg>

<svg xmlns="http://www.w3.org/2000/svg" width="40" height="40" fill="none" viewBox="0 0 40 40"><circle cx="20" cy="20" r="20" fill="#fff"/><path fill="#f8f8f8" d="M23.498 2.63H16.47C9.616 4.048 4.17 9.483 2.763 16.454v7.089c1.405 6.97 6.853 12.406 13.706 13.824h7.03c6.91-1.418 12.3-6.912 13.706-13.824v-7.089C35.799 9.484 30.35 4.048 23.498 2.63"/><path fill="#ce1124" d="M37.077 24.135c.32-1.355.482-2.743.48-4.135 0-1.424-.166-2.809-.48-4.136H24.086V2.762a17.5 17.5 0 0 0-4.1-.485c-1.412 0-2.785.168-4.1.485v13.102H2.893A18 18 0 0 0 2.414 20c0 1.423.165 2.808.48 4.135h12.991v13.102c1.343.323 2.72.486 4.1.485 1.412 0 2.785-.168 4.1-.485V24.135z"/></svg>
